X: 3
T: London Lasses
R: reel
M: 4/4
L: 1/8
K: Gmaj
"G"~G3BDGBd|eaage~g3|~G3BDGBd|egdBAGFA|~G3BDGBd|eaage~g3|"C"bgagegfa|gedBAGFA|"G"~G3BDGBd|eaage~g3|~g3de~g3|egdBAGFA|~G3BDGBd|eaage~g3|"C"bgagegfa|gedBAGFA||"G"~g3gedBe|d~G3BGB/c/d|"C"gGfGeged|B~G3B~A3|"G"gaagfgge|d~B3dega|"C"bgagegfa|gedBAGFA|"G"g3gedBe|d~G3BGB/c/d|"C"gGfGeged|B~G3B~A3|"G"gaagfgge|d~B3dega|"C"bgagegfa|gedBAGFA||


Tune 2273	Setting 2273

